packages/ui/src/lib/icons/svg/workbench.svg

<svg width="100%" height="100%" viewBox="0 0 16 16" fill="none" xmlns="http://www.w3.org/2000/svg">
<path d="M2 13.7516L3.5 10.2516M5 6.75165L3.5 10.2516M14 13.7516L12.5 10.2516M11 6.75165L12.5 10.2516M12.5 10.2516H3.5" stroke="currentColor" stroke-width="1.5"/>
<path d="M2 7H14L12.2857 3H3.71429L2 7Z" stroke="currentColor" stroke-width="1.5"/>
</svg>

<svg xmlns="http://www.w3.org/2000/svg" fill="none" viewBox="0 0 16 16" width="100%" height="100%"><path stroke="currentColor" stroke-width="1.5" d="m2 13.752 1.5-3.5m1.5-3.5-1.5 3.5m10.5 3.5-1.5-3.5m-1.5-3.5 1.5 3.5m0 0h-9M2 7h12l-1.714-4H3.714z"/></svg>
